X:1
T:Title
%%score { ( 1 4 ) | ( 2 3 ) }
L:1/8
M:4/4
K:Ab
V:1 treble nm="Grand Piano"
V:4 treble 
V:2 bass 
V:3 bass 
V:1
 z4 z2[Q:1/4=100] [CA][DB] | [Ec][Ec][=D_c][Dc] [E=c]2 [CA]2 | [CE]6 [DA][EG] | %3
 [A,DF][A,DF][A,DF][A,DF] [A,FA]2 [A,DF]2 | [A,CE]6 [CA][DB] | [Ec][Ec][=D_c][Dc] [E=c]2 [CA]2 | %6
 [CE]6 [CEA]2 | [B,EG]4 [A,=DF]4 | [G,E]6 E2 | dcdc d2 [EB]2 | [Ec]6 E2 | B=ABA B2 G2 | %12
 [CEA]6 [CA][DB] | [Ec][Ec][=D_c][Dc] [E=c]2 [_Ge]2 | e2 d4 [Fd]2 | [Ec]4 [DB]4 |[M:3/4] [A,CA]6 | %17
[M:1/4] AG |[M:4/4] z2 A,2 A,2 [Fd][Ac] | [B,GB]2 [DGB]2 [CFA]2 [EGB]2 | [EAc]6 c2 | d2 c2 B2 A2 | %22
[M:3/4] G6 |[M:1/4] B2 |[M:4/4] c6 z2 | [CFA]2 [CF=A]2 [B,FB]2 [Fc]2 | [Fd]6 z2 | c2 B2 A2 G2 | %28
[M:3/4] [CA]6 |] %29
V:2
 z4 z2 [A,,E,]2 | [A,,A,][A,,A,][A,,A,][A,,A,] [A,,A,]2 [A,,E,]2 | z4 z2 A,2 | D,D,D,D, D,2 D,2 | %4
 A,,6 [A,,E,]2 | [A,,A,][A,,A,][A,,A,][A,,A,] [A,,A,]2 [A,,A,]2 | [A,,A,]6 A,,2 | B,,4 B,,4 | %8
 E,6 E,2 | [E,B,E][E,=A,E][E,B,E][E,A,E] [E,B,E]2 [D,G,]2 | [A,,A,]6 E,2 | %11
 [E,DE][E,CE][E,DE][E,CE] [E,DE]2 [E,B,E]2 | A,,6 [A,,E,]2 | %13
 [A,,A,][A,,A,][A,,A,][A,,A,] [A,,A,]2 [C,A,]2 | [D,A,]6 [D,A,]2 | [E,A,]4 [E,G,]4 |[M:3/4] A,,6 | %17
[M:1/4] CE |[M:4/4] D6 z2 | E,2 E,2 F,2 E,2 | A,,6 [A,E]2 | [G,B,E]2 [A,E]2 [G,B,E]2 [F,B,=D]2 | %22
[M:3/4] [E,B,E]6 |[M:1/4] E2 |[M:4/4] =E6 z2 | F,2 E,2 D,2 [C,=A,]2 | [B,,B,]2 B,,B, B,,2 [D,B,]2 | %27
 [E,A,E]2 [E,G,E]2 [E,CE]2 [E,B,D]2 |[M:3/4] [A,,A,]6 |] %29
V:3
 x8 | x8 | [A,,A,]6 A,,C, | x8 | x8 | x8 | x8 | x8 | x8 | x8 | x8 | x8 | x8 | x8 | x8 | x8 | %16
[M:3/4] x6 |[M:1/4] x2 |[M:4/4] z2 D,2 D,2 [D,B,][=D,B,] | x8 | x8 | x8 |[M:3/4] x6 |[M:1/4] x2 | %24
[M:4/4] z2 C,2 C,2 C,2 | x8 | x8 | x8 |[M:3/4] x6 |] %29
V:4
 x8 | x8 | x8 | x8 | x8 | x8 | x8 | x8 | x8 | x8 | x8 | x8 | x8 | x8 | F6 z2 | x8 |[M:3/4] x6 | %17
[M:1/4] x2 |[M:4/4] F6 z2 | x8 | x8 | x8 |[M:3/4] x6 |[M:1/4] x2 |[M:4/4] z2 G,2 G,2 [C=EB]2 | x8 | %26
 z2 .B,2 B,2 [Fd]2 | x8 |[M:3/4] x6 |] %29

